X:1
T: Lady Charlotte Lennox
C:R. Mackintosh
R:Reel
Q: 232
K:Em
M:4/4
L:1/8
|:B|e2 BG e2 cA|d2 BG FD dF|e2 BG e2 cA|BG AF GE EB|
e2 BG e2 cA|d2 BG FD dF|e2 BG e2 cA|BG AF GE Ef|
g1/2f1/2e Be ge be|de fg af df|g1/2f1/2e Be ge be|af bf ge ef|
g1/2f1/2e Be ge be|de fg af df|ge f^d eB cA|GB AF GE E:|
